!!!!SEGMENT: pl-kozmzk--mzk-m-159--012_walczynski-franciszek--praeludia-organi-op-5-allegretto.krn
!!!cenid: 18xx:2755
!!!COM: Walczyński, Franciszek
!!!COM-rismID:
!!!CDT: ~1852-1937
!!!CNT: Polish
!!!GTL: Praeludia organi op. 5
!!!OTL: 12. Allegretto
!!!PDT: 1894
!!!AGN: Secular; Prelude
!!!SMS-siglum: PL-KOZmzk
!!!SMS-shelfmark: mzk/m/159
!!!SMS-shelfwork: 012 G
!!!SMS-variant:
!!!SMS-altvar:
!!!NIFC-rismSourceID: 1001116628
!!!NIFC-islandoraID: pl-kozmzk:2265
!!!URL-pdf-islandora: https://repozytorium.nifc.pl/islandora/object/pl-kozmzk%3A2265/datastream/PDF/view
!!!URL-scan: https://polish.musicsources.pl/pl/lokalizacje/galeria/druki-muzyczne/7406 @EN{Scan on Polish Music Herritage in Open Access Website} @PL{Skany w portalu Dziedzictwo Muzyki Polskiej w otwartym dostępie}
!!!ONB-nifc: UWAGA: numeracja plików zgodna z numeracją źrodłową
!!!OMD: 12. Allegretto.
!!!AIN: 2 empty
!!!key:
**kern	**kern	**dynam
*part2	*part1	*part1
*staff2	*staff1	*
*Iempty	*Iempty	*
*I"	*I"	*
*clefF4	*clefG2	*
*k[f#c#g#d#a#]	*k[f#c#g#d#a#]	*
*B:	*B:	*
*M3/4	*M3/4	*
=1	=1	=1
*	*^	*
!	!	!	!LO:DY:b=2
8BB'\L	2.rg	2.r	p
(8F#\	.	.	.
8B\	.	.	.
8d#\)	.	.	.
8c#'\	.	.	.
8A#'\J	.	.	.
=2	=2	=2	=2
(8B\L	2.r	4r	.
16A#\L	.	.	.
16G#\JJ)	.	.	.
8F#'\L	.	8r	p
8E'\	.	(8f#\L	.
8D#'\	.	8b\	.
8C#'\J	.	8dd#\J)	.
=3	=3	=3	=3
(8C#\L	2.r	8cc#'\L	.
8E\J	.	8a#'\J	.
4D#\	.	(8b\L	.
.	.	16a#\L	.
.	.	16g#\JJ	.
4E\)	.	8f#\L	.
.	.	8e\J)	.
=4	=4	=4	=4
(8F#\L	4r	(8d#\L	.
8F##X\J	.	8c#\J	.
!	!LO:TX:t=P:problem=pf się nie wyświetla	!	!LO:DY:a
2G#\)	8r	2B\)	pf
.	(>8d#/L	.	.
.	8g#/	.	.
.	8b/J)	.	.
=5	=5	=5	=5
4F##X\	8a#'/L	4c#\	.
.	8f##X'/J	.	.
4.G#\	(8g#/L	4.B\	.
!	!LO:N:acc=n#	!	!
.	16f#/L	.	.
.	16e/JJ	.	.
.	8d#/L	.	.
[8E\	8c#/J)	8G#\	.
=6	=6	=6	=6
!	!	!	!LO:DY:a
4E\]	(8B/L	4G#\	p
.	8c#/J	.	.
!	!LO:TX:b:i:t=rit.	!	!
2D#;<\	2d#;/)	2F##X\	.
=7	=7	=7	=7
2.r	8r	2.re	p
.	(8d#/L	.	.
.	8a#/	.	.
.	8cc#/)	.	.
.	8b'/	.	.
.	8g#'/J	.	.
!!LO:LB:g=original
=8	=8	=8	=8
!	!	!	!LO:DY:b=2
8D#'\L	((2.f##X/	2.r	p
(8A#\	.	.	.
8c#\	.	.	.
8e\)	.	.	.
8d#'\	.	.	.
8c#'\J	.	.	.
=9	=9	=9	=9
(8B\L	8g#/L)	2d#\	.
8F##X\)	8a#/	.	.
8G#'\	8b/	.	<
8F#'\	8b#X/	.	.
8E'\	8cc#/	[4g#\	.
8D#'\J	8dd#/J)	.	[
=10	=10	=10	=10
8C#\L	(4.ee/	2g#\]	f
(8G#\	.	.	.
8c#\	.	.	.
8B\J)	8ee#X/	.	.
4A#^\	8ff#/L	([4f#\	.
.	8een/J)	.	.
=11	=11	=11	=11
(8B\L	(4dd#/	4f#\]	.
8An\)	.	.	.
8G#'\	8ee/L	8e\L	.
8F#'\	8dd#/	8f#\J	.
8E'\	8cc#/	4g#\)	.
8E#X'\J	8b/J	.	.
=12	=12	=12	=12
(8F#/L	4a#/	(2f#\	.
8En/)	.	.	.
8D#'/	8b/L	.	.
8AA#'/	8cc#/	.	.
8BB'/	8dd#/	8b\L	.
8C#'/J	8ee/J)	16g#\L	.
.	.	16a#\JJ	.
=13	=13	=13	=13
!	!	!	!LO:HP:a
(4D#\	(4dd#/	8b\L	p >
.	.	8f#\J	.
4E\	4cc#/	8g#\L	.
.	.	8c#\J	.
4F#\)	4a#/	8f#\L	.
.	.	8e\J	.
=14	=14	=14	=14
8BB'\L	2b/	2d#\	.
(8F#\	.	.	.
!LO:TX:b:i:t=rit.	!	!	!
8B\	.	.	.
8d#\)	.	.	.
8c#'\	4a#/	4e\	.
8F#'\J	.	.	]]
=15	=15	=15	=15
2.BB;</	2.b;/)	2.d#\)	pp
*	*v	*v	*
==	==	==
*-	*-	*-
!!!system-decoration: {(s1,s2)}
!!!EED: Andrzej Borzym
!!!EEV: 2021-08-08
!!!RDF**kern: > = above
!!!RDF**kern: < = below
!!!ENC: Krzysztof Stępień
!!!END: 2021-07-26
